src/assets/svg/twitter-logo.svg

<svg fill="none" height="16" viewBox="0 0 16 16" width="16" xmlns="http://www.w3.org/2000/svg"><path d="m5.21189 14c5.66031 0 8.75751-4.61811 8.75751-8.61615 0-.12992 0-.25984-.006-.38976.6002-.4252 1.1225-.9626 1.5366-1.57086-.5522.24212-1.1464.40157-1.7707.47834.6363-.37204 1.1225-.9685 1.3566-1.67716-.5943.34842-1.2546.59645-1.9569.73228-.5642-.59055-1.3625-.95669-2.2448-.95669-1.69872 0-3.0793 1.35826-3.0793 3.02952 0 .23623.03005.46654.07805.69095-2.55701-.12402-4.82593-1.33464-6.34453-3.16535-.26411.44881-.41417.9685-.41417 1.52362 0 1.05118.54622 1.97834 1.36855 2.52163-.5042-.01771-.97839-.15352-1.39256-.37793v.04133c0 1.46457 1.06242 2.6929 2.46699 2.97049-.25811.07084-.52821.10626-.81033.10626-.19808 0-.39015-.01771-.57623-.05313.39016 1.20471 1.53061 2.07881 2.87515 2.10241-1.05642.8149-2.38295 1.2992-3.82352 1.2992-.246106 0-.492204-.0118-.7323-.0414 1.35654.8504 2.97719 1.3524 4.71189 1.3524z" fill="#1f3e4f"/></svg>

<svg width="16" height="16" viewBox="0 0 16 16" fill="none" xmlns="http://www.w3.org/2000/svg">
    <path
    d="M5.21189 14C10.8722 14 13.9694 9.38189 13.9694 5.38385C13.9694 5.25393 13.9694 5.12401 13.9634 4.99409C14.5636 4.56889 15.0859 4.03149 15.5 3.42323C14.9478 3.66535 14.3536 3.8248 13.7293 3.90157C14.3656 3.52953 14.8518 2.93307 15.0859 2.22441C14.4916 2.57283 13.8313 2.82086 13.129 2.95669C12.5648 2.36614 11.7665 2 10.8842 2C9.18548 2 7.8049 3.35826 7.8049 5.02952C7.8049 5.26575 7.83495 5.49606 7.88295 5.72047C5.32594 5.59645 3.05702 4.38583 1.53842 2.55512C1.27431 3.00393 1.12425 3.52362 1.12425 4.07874C1.12425 5.12992 1.67047 6.05708 2.4928 6.60037C1.9886 6.58266 1.51441 6.44685 1.10024 6.22244C1.10024 6.23425 1.10024 6.24606 1.10024 6.26377C1.10024 7.72834 2.16266 8.95667 3.56723 9.23426C3.30912 9.3051 3.03902 9.34052 2.7569 9.34052C2.55882 9.34052 2.36675 9.32281 2.18067 9.28739C2.57083 10.4921 3.71128 11.3662 5.05582 11.3898C3.9994 12.2047 2.67287 12.689 1.2323 12.689C0.986194 12.689 0.740096 12.6772 0.5 12.6476C1.85654 13.498 3.47719 14 5.21189 14Z"
    fill="#1F3E4F"
  />
  </svg>
